!!!!SEGMENT: pl-wtm--r-996-1--001_krogulski-jozef-wladyslaw--nieszpory-dixit-dominus.krn
!!!cenid: 18xx:2092
!!!COM: Krogulski, Józef Władysław
!!!COM-rismid: pe30001797
!!!CDT: 1815/10/04-1842/01/09
!!!CNT: Polish
!!!OTL: Nieszpory – Dixit Dominus
!!!PDT: 1836
!!!AGN: Sacred; Vespers
!!!SMS-siglum: PL-Wtm
!!!SMS-shelfmark: R 996/1
!!!SMS-shelfwork: 001-001 M
!!!SMS-variant:
!!!SMS-altvar:
!!!NIFC-rismid: 1001086252
!!!URL-scan: http://repozytorium.nifc.pl/skany/pl-wtm-nut--r996
!!!ONB-nifc: UWAGA: części Nieszporów: 1. Dixit Dominus, 2. Confitebor tibi, 3. Beatus vir, 4. Laudate pueri, 5. Laudate Dominum, 6. Magnificat, 7. Salve Regina. Folder pl-wtm-r996-1
!!!OMD: Andante.
**kern	**kern	**dynam	**kern	**text	**dynam	**kern	**text	**dynam	**kern	**text	**dynam	**kern	**text	**dynam
*part5	*part5	*part5	*part4	*part4	*part4	*part3	*part3	*part3	*part2	*part2	*part2	*part1	*part1	*part1
*staff6	*staff5	*	*staff4	*staff4	*	*staff3	*staff3	*	*staff2	*staff2	*	*staff1	*staff1	*
*	*I"Organo.	*	*I"Basſo.	*	*	*I"Tenori.	*	*	*I"Soprano 2. vel Alto.	*	*	*I"Soprano.	*	*
*clefF4	*clefG2	*	*clefF4	*	*	*clefG2	*	*	*clefG2	*	*	*clefG2	*	*
*	*	*	*	*	*	*ITrd7c12	*	*	*	*	*	*	*	*
*k[f#c#g#d#]	*k[f#c#g#d#]	*	*k[f#c#g#d#]	*	*	*k[f#c#g#d#]	*	*	*k[f#c#g#d#]	*	*	*k[f#c#g#d#]	*	*
*M3/4	*M3/4	*	*M3/4	*	*	*M3/4	*	*	*M3/4	*	*	*M3/4	*	*
=1	=1	=1	=1	=1	=1	=1	=1	=1	=1	=1	=1	=1	=1	=1
*	*	*	*	*ij	*	*	*	*	*	*ij	*	*	*	*
!	!	!LO:DY:rj	!	!	!LO:DY:rj:b	!	!	!LO:DY:rj:b	!	!	!LO:DY:rj:b	!	!	!LO:DY:rj:b
[2.E [2.EE/	2.b 2.g#/	p	2E\	Di-	p	2B 2G#\	Di-	p	2g#/	Di-	p	2b\	Di-	p
.	.	.	4E\	-xit	.	4B 4G#\	-xit	.	4g#/	-xit	.	4b\	-xit	.
=2	=2	=2	=2	=2	=2	=2	=2	=2	=2	=2	=2	=2	=2	=2
2.E_ 2.EE/_	2cc# 2a\	.	2E\	di-	.	2c# 2A\	di-	.	2a/	di-	.	2cc#\	di-	.
.	4b 4g#\	.	4E\	-xit	.	4B 4G#\	-xit	.	4g#/	-xit	.	4b\	-xit	.
=3	=3	=3	=3	=3	=3	=3	=3	=3	=3	=3	=3	=3	=3	=3
2.E_ 2.EE/_	4ee 4g#\	.	2E\	Do-	.	(4e 4G#\	Do-	.	(4g#/	Do-	.	(4ee\	Do-	.
.	4dd# 4b\	.	.	.	.	4d# 4B\)	.	.	4b/)	.	.	4dd#\)	.	.
.	4cc# 4a\	.	4E\	-mi-	.	4c# 4A\	-mi-	.	4a/	-mi-	.	4cc#\	-mi-	.
=4	=4	=4	=4	=4	=4	=4	=4	=4	=4	=4	=4	=4	=4	=4
2E] 2EE/]	2b 2g#/	.	2E\	-nus	.	2B 2G#/	-nus	.	2g#/	-nus	.	2b\	-nus	.
4r	4r	.	4r	.	.	4r	.	.	4r	.	.	4r	.	.
=5	=5	=5	=5	=5	=5	=5	=5	=5	=5	=5	=5	=5	=5	=5
*	*	*	*	*	*	*^	*	*	*	*	*	*	*	*
[2.B [2.BB\	2.a 2.f#/	.	2.BB/	Do-	.	[2.A/	2F#\	Do-	.	(4e/	Do-	.	[2.a/	Do-	.
.	.	.	.	.	.	.	.	.	.	4d#/	.	.	.	.	.
.	.	.	.	.	.	.	4E\	.	.	4c#/)	.	.	.	.	.
=6	=6	=6	=6	=6	=6	=6	=6	=6	=6	=6	=6	=6	=6	=6	=6
*	*^	*	*	*	*	*	*	*	*	*	*	*	*	*	*
2.B] 2.BB\]	4a/	2.d#\	.	2BB/	-mi-	.	4A/]	2F#\	.	.	2d#/	-mi-	.	4a/]	.	.
.	4cc#/	.	.	.	.	.	4c#/	.	-mi-	.	.	.	.	4cc#/	-mi-	.
.	4b/	.	.	4BB/	-no	.	4B/	4F#\	-no	.	4d#/	-no	.	4b/	-no	.
*	*v	*v	*	*	*	*	*v	*v	*	*	*	*	*	*	*	*
=7	=7	=7	=7	=7	=7	=7	=7	=7	=7	=7	=7	=7	=7	=7
[2.E [2.EE/	2.a 2.f# 2.d#/	.	2.E\	me-	.	2.A 2.F#/	me-	.	2.d#/	me-	.	2.a/	me-	.
=8	=8	=8	=8	=8	=8	=8	=8	=8	=8	=8	=8	=8	=8	=8
2E] 2EE/]	2g# 2e/	.	2E\	-o	.	2G# 2E/	-o	.	2e/	-o	.	2g#/	-o	.
4r	4r	.	4r	.	.	4r	.	.	4r	.	.	4r	.	.
=9	=9	=9	=9	=9	=9	=9	=9	=9	=9	=9	=9	=9	=9	=9
[2.E [2.EE/	2.b 2.g#\	.	2E\	Di-	.	2B 2G#/	Di-	.	2g#/	Di-	.	2b\	Di-	.
.	.	.	4E\	-xit	.	4B 4G#/	-xit	.	4g#/	-xit	.	4b\	-xit	.
=10	=10	=10	=10	=10	=10	=10	=10	=10	=10	=10	=10	=10	=10	=10
2.E_ 2.EE/_	2cc# 2a\	.	2E\	di-	.	2c# 2A/	di-	.	2a/	di-	.	2cc#\	di-	.
.	4b 4g#\	.	4E\	-xit	.	4B 4G#/	-xit	.	4g#/	-xit	.	4b\	-xit	.
=11	=11	=11	=11	=11	=11	=11	=11	=11	=11	=11	=11	=11	=11	=11
!	!	!LO:DY:rj	!	!	!LO:DY:rj:b	!	!	!LO:DY:rj:b	!	!	!LO:DY:rj:b	!	!	!LO:DY:rj:b
2.E_ 2.EE/_	4gg# 4b\	f	2E\	Do-	f	(4g# 4B\	Do-	f	(4b/	Do-	f	(4gg#\	Do-	f
.	4ee 4g#\	.	.	.	.	4e 4G#\)	.	.	4g#/)	.	.	4ee\)	.	.
.	4cc# 4a\	.	4E\	-mi-	.	4c# 4A\	-mi-	.	4a/	-mi-	.	4cc#\	-mi-	.
=12	=12	=12	=12	=12	=12	=12	=12	=12	=12	=12	=12	=12	=12	=12
2E] 2EE/]	2b 2g#\	.	2E\	-nus	.	2B 2G#/	-nus	.	2g#/	-nus	.	2b\	-nus	.
4r	4r	.	4r	.	.	4r	.	.	4r	.	.	4r	.	.
=13	=13	=13	=13	=13	=13	=13	=13	=13	=13	=13	=13	=13	=13	=13
*	*^	*	*	*	*	*^	*	*	*	*	*	*	*	*
4E\	4a#X/	2.f#\	.	(4E\	Do-	.	4A#X/	2.F#\	Do-	.	2.f#/	Do-	.	(4a#X\	Do-	.
4D#\	4b/	.	.	4D#\	.	.	4B/	.	.	.	.	.	.	4b\	.	.
4C#\	4cc#/	.	.	4C#\)	.	.	4c#/	.	.	.	.	.	.	4cc#\)	.	.
=14	=14	=14	=14	=14	=14	=14	=14	=14	=14	=14	=14	=14	=14	=14	=14	=14
2BB/	2dd#/	2f#\	.	2BB\	-mi-	.	2d# 2F#/	2F#\	-mi-	.	2b\	-mi-	.	2dd#\	-mi-	.
4E\	8ff#/L	4b 4g#\	.	4E\	-no	.	8f#/L	4F#\	-no	.	4b\	-no	.	8ff#\L	-no	.
.	8ee/J	.	.	.	.	.	8e/J	.	.	.	.	.	.	8ee\J	.	.
*	*v	*v	*	*	*	*	*v	*v	*	*	*	*	*	*	*	*
=15	=15	=15	=15	=15	=15	=15	=15	=15	=15	=15	=15	=15	=15	=15
2F#\	4dd# 4b\	.	2.F#\	me-	.	(4d# 4B\	me-	.	(4b\	me-	.	(4dd#\	me-	.
.	4ee 4cc#\	.	.	.	.	4e 4c#\	.	.	4cc#\	.	.	4ee\	.	.
4FF#/	4cc# 4a#X\	.	.	.	.	4c# 4A#X\)	.	.	4a#X\)	.	.	4cc#\)	.	.
=16	=16	=16	=16	=16	=16	=16	=16	=16	=16	=16	=16	=16	=16	=16
2BB/	2b\	.	2BB/	-o	.	2B\	-o	.	2b\	-o	.	2b\	-o	.
4r	4r	.	4r	.	.	4r	.	.	4r	.	.	4r	.	.
=17	=17	=17	=17	=17	=17	=17	=17	=17	=17	=17	=17	=17	=17	=17
!	!	!	!	!	!	!LO:TX:t=P:problem:skreślone nuty w tt. nr 17-24	!	!	!	!	!	!	!	!
[2.B [2.BB\	2d# 2B/	.	4BB/	Se-	.	4B 4D#/	Se-	.	4B/	Se-	.	4b\	Se-	.
.	.	.	4BB/	-det	.	4B 4D#/	-det	.	4B/	-det	.	4b\	-det	.
.	4e 4c#/	.	4BB/	à	.	4c# 4E/	à	.	4B/	à	.	4b\	à	.
=18	=18	=18	=18	=18	=18	=18	=18	=18	=18	=18	=18	=18	=18	=18
2.B_ 2.BB\_	2e#X 2c##X/	.	2BB/	de-	.	2c## 2E#/	de-	.	2B/	de-	.	2b\	de-	.
.	4f# 4d#/	.	4BB/	-xtris	.	4d# 4F#/	-xtris	.	4B/	-xtris	.	4b\	-xtris	.
!!LO:LB:g=original
=19	=19	=19	=19	=19	=19	=19	=19	=19	=19	=19	=19	=19	=19	=19
2.B_ 2.BB\_	2.g# 2.e/	.	2.BB/	me-	.	2.e 2.G#/	me-	.	2.B/	me-	.	2.b\	me-	.
=20	=20	=20	=20	=20	=20	=20	=20	=20	=20	=20	=20	=20	=20	=20
2.B_ 2.BB\_	4f# 4d#/	.	4BB/	-is	.	4d# 4F#/	-is	.	4B/	-is	.	4b\	-is	.
.	4r	.	4r	.	.	4r	.	.	4r	.	.	4r	.	.
.	4r	.	4r	.	.	4r	.	.	4r	.	.	4r	.	.
=21	=21	=21	=21	=21	=21	=21	=21	=21	=21	=21	=21	=21	=21	=21
2.B_ 2.BB\_	2e#X 2c##X/	.	4BB/	Se-	.	4c##X 4E#X/	Se-	.	4B/	Se-	.	4b\	Se-	.
.	.	.	4BB/	-det	.	4c## 4E#/	-det	.	4B/	-det	.	4b\	-det	.
.	4f# 4d#/	.	4BB/	à	.	4d# 4F#/	à	.	4B/	à	.	4b\	à	.
=22	=22	=22	=22	=22	=22	=22	=22	=22	=22	=22	=22	=22	=22	=22
2.B_ 2.BB\_	2f##X 2d##X/	.	2BB/	de-	.	2d##X 2F##X/	de-	.	2B/	de-	.	2b\	de-	.
.	4g# 4e#X/	.	4BB/	-xtris	.	4e#X 4G#/	-xtris	.	4B/	-xtris	.	4b\	-xtris	.
=23	=23	=23	=23	=23	=23	=23	=23	=23	=23	=23	=23	=23	=23	=23
2.B_ 2.BB\_	2.a 2.f#/	.	2.BB/	me-	.	2.f# 2.A/	me-	.	2.B/	me-	.	2.b\	me-	.
=24	=24	=24	=24	=24	=24	=24	=24	=24	=24	=24	=24	=24	=24	=24
2.B] 2.BB\]	4g# 4e/	.	4BB/	-is	.	4enX 4G#/	-is	.	4B/	-is	.	4b\	-is	.
.	4r	.	4r	.	.	4r	.	.	4r	.	.	4r	.	.
.	4r	.	4r	.	.	4r	.	.	4r	.	.	4r	.	.
=25	=25	=25	=25	=25	=25	=25	=25	=25	=25	=25	=25	=25	=25	=25
!	!	!LO:DY:rj	!	!	!LO:DY:rj:b	!	!	!LO:DY:rj:b	!	!	!LO:DY:rj:b	!	!	!LO:DY:rj:b
[2.E [2.EE/	2.b 2.gn/	p	2E\	Do-	p	2B 2G/	Do-	p	2gn/	Do-	p	2b\	Do-	p
.	.	.	4E\	-nec	.	4B 4G/	-nec	.	4g/	-nec	.	4b\	-nec	.
=26	=26	=26	=26	=26	=26	=26	=26	=26	=26	=26	=26	=26	=26	=26
2.E_ 2.EE/_	2ccn 2a\	.	2E\	po-	.	2c 2A/	po-	.	2a/	po-	.	2ccn\	po-	.
.	4b 4gn\	.	4E\	-nam	.	4B 4G/	-nam	.	4gn/	-nam	.	4b\	-nam	.
=27	=27	=27	=27	=27	=27	=27	=27	=27	=27	=27	=27	=27	=27	=27
2.E_ 2.EE/_	4ee 4gn\	.	8E\	i-	.	8e 8G/	i-	.	8gn/	i-	.	8ee\	i-	.
.	.	.	8E\	-ni-	.	8e 8G/	-ni-	.	8g/	-ni-	.	8ee\	-ni-	.
.	4ddn 4b\	.	4E\	-mi-	.	4d 4B\	-mi-	.	4b/	-mi-	.	4ddn\	-mi-	.
.	4ccn 4a\	.	4E\	-cos	.	4c 4A\	-cos	.	4a/	-cos	.	4ccn\	-cos	.
=28	=28	=28	=28	=28	=28	=28	=28	=28	=28	=28	=28	=28	=28	=28
2.E_ 2.EE/_	4ccn 4a\	.	4E\	tu-	.	4c 4A\	tu-	.	4a/	tu-	.	4ccn\	tu-	.
.	4b 4gn\	.	4E\	-os	.	4B 4G\	-os	.	4gn/	-os	.	4b\	-os	.
.	4r	.	4r	.	.	4r	.	.	4r	.	.	4r	.	.
=29	=29	=29	=29	=29	=29	=29	=29	=29	=29	=29	=29	=29	=29	=29
2.E_ 2.EE/_	2.b 2.gn/	.	2E\	Do-	.	2B 2G\	Do-	.	2gn/	Do-	.	2b\	Do-	.
.	.	.	4E\	-nec	.	4B 4G\	-nec	.	4g/	-nec	.	4b\	-nec	.
=30	=30	=30	=30	=30	=30	=30	=30	=30	=30	=30	=30	=30	=30	=30
2.E_ 2.EE/_	2ccn 2a\	.	2E\	po-	.	2c 2A\	po-	.	2a/	po-	.	2ccn\	po-	.
.	4b 4gn\	.	4E\	-nam	.	4B 4G\	-nam	.	4gn/	-nam	.	4b\	-nam	.
=31	=31	=31	=31	=31	=31	=31	=31	=31	=31	=31	=31	=31	=31	=31
2.E] 2.EE/]	4ggn 4b\	.	8E\	i-	.	8g 8G\	i-	.	8gn/	i-	.	8ggn\	i-	.
.	.	.	8E\	-ni-	.	8g 8G\	-ni-	.	8g/	-ni-	.	8gg\	-ni-	.
.	4ee 4gn\	.	4E\	-mi-	.	4e 4G\	-mi-	.	4g/	-mi-	.	4ee\	-mi-	.
.	4ccn 4g\	.	4E\	-cos	.	4c 4G\	-cos	.	4g/	-cos	.	4ccn\	-cos	.
=32	=32	=32	=32	=32	=32	=32	=32	=32	=32	=32	=32	=32	=32	=32
[2.Dn [2.DDn/	4b 4gn\	.	4Dn\	tu-	.	4B 4G\	tu-	.	4gn/	tu-	.	4b\	tu-	.
.	4a 4f#\	.	4D\	-os	.	4A 4F#\	-os	.	4f#/	-os	.	4a\	-os	.
.	4r	.	4r	.	.	4r	.	.	4r	.	.	4r	.	.
=33	=33	=33	=33	=33	=33	=33	=33	=33	=33	=33	=33	=33	=33	=33
2.Dn] 2.DD/]	2.a 2.f#/	.	4.Dn\	Sca-	.	4.A 4.F#/	Sca-	.	4.f#/	Sca-	.	4.a/	Sca-	.
.	.	.	8D\	-bel-	.	8A 8F#/	-bel-	.	8f#/	-bel-	.	8a/	-bel-	.
.	.	.	4D\	-lum	.	4A 4F#/	-lum	.	4f#/	-lum	.	4a/	-lum	.
=34	=34	=34	=34	=34	=34	=34	=34	=34	=34	=34	=34	=34	=34	=34
2.Gn 2.GGn\	2b 2gn/	.	4Gn\	pe-	.	4B 4G\	pe-	.	4gn/	pe-	.	4b\	pe-	.
.	.	.	4G\	-dum	.	4B 4G\	-dum	.	4g/	-dum	.	4b\	-dum	.
.	4b 4e/	.	4G\	tu-	.	4B 4G\	tu-	.	4e/	tu-	.	4b\	tu-	.
=35	=35	=35	=35	=35	=35	=35	=35	=35	=35	=35	=35	=35	=35	=35
*	*^	*	*	*	*	*^	*	*	*	*	*	*	*	*
2.F# 2.FF#\	4b/	2.d#X\	.	2.F#\	-o-	.	4B/	2.A\	-o-	.	2.d#X/	-o-	.	(4b\	-o-	.
.	4ccn/	.	.	.	.	.	(4c/	.	.	.	.	.	.	4ccn\	.	.
.	4a/	.	.	.	.	.	4A/)	.	.	.	.	.	.	4a\)	.	.
*	*v	*v	*	*	*	*	*v	*v	*	*	*	*	*	*	*	*
=36	=36	=36	=36	=36	=36	=36	=36	=36	=36	=36	=36	=36	=36	=36
2.E 2.EE/	2gn 2e/	.	2E\	-rum	.	2G 2E/	-rum	.	2e/	-rum	.	2gn/	-rum	.
.	4r	.	4r	.	.	4r	.	.	4r	.	.	4r	.	.
=37	=37	=37	=37	=37	=37	=37	=37	=37	=37	=37	=37	=37	=37	=37
*	*	*	*	*	*	*^	*	*	*	*	*	*	*	*
!LO:TX:b:t=VS.	!	!	!	!	!	!	!	!	!	!	!	!	!	!	!
2.Cn/	2.cn/	.	4.Cn/	Sca-	.	4.Cn/	4.Cn\	Sca-	.	4.cn/	Sca-	.	4.cn/	Sca-	.
.	.	.	8C/	-bel-	.	8C/	8C\	-bel-	.	8c/	-bel-	.	8c/	-bel-	.
.	.	.	4C/	-lum	.	4C/	4C\	-lum	.	4c/	-lum	.	4c/	-lum	.
!!LO:LB:g=original
=38	=38	=38	=38	=38	=38	=38	=38	=38	=38	=38	=38	=38	=38	=38	=38
2.BB/	2.B/	.	4BB/	pe-	.	4BB/	4BB\	pe-	.	4B/	pe-	.	4B/	pe-	.
.	.	.	4BB/	-dum	.	4BB/	4BB\	-dum	.	4B/	-dum	.	4B/	-dum	.
.	.	.	4BB/	tu-	.	4BB/	4BB\	tu-	.	4B/	tu-	.	4B/	tu-	.
=39	=39	=39	=39	=39	=39	=39	=39	=39	=39	=39	=39	=39	=39	=39	=39
2.Cn;/	2.cn;/	.	2.Cn;/	-o-	.	2.Cn;/	2.Cn\	-o-	.	2.cn;/	-o-	.	2.cn;/	-o-	.
=40	=40	=40	=40	=40	=40	=40	=40	=40	=40	=40	=40	=40	=40	=40	=40
4BB/	4B/	.	4BB/	-rum	.	4BB/	4BB\	-rum	.	4B/	-rum	.	4B/	-rum	.
!LO:TX:t=P:problem:fermata nad dwiema pauzami	!LO:TX:t=P:problem:fermata nad dwiema pauzami	!	!LO:TX:t=P:problem:fermata nad dwiema pauzami	!	!	!	!LO:TX:t=P:problem:fermata nad dwiema pauzami	!	!	!LO:TX:t=P:problem:fermata nad dwiema pauzami	!	!	!LO:TX:t=P:problem:fermata nad dwiema pauzami	!	!
4r;	4r;	.	4r;	.	.	4r;	4ryy	.	.	4r;	.	.	4r;	.	.
4r	4r	.	4r	.	.	4r	4ryy	.	.	4r	.	.	4r	.	.
*	*	*	*	*	*	*v	*v	*	*	*	*	*	*	*	*
=41	=41	=41	=41	=41	=41	=41	=41	=41	=41	=41	=41	=41	=41	=41
[2.E [2.EE/	2.b 2.g#\	.	4E\	Vir-	.	4B 4G#\	Vir-	.	4g#/	Vir-	.	4b\	Vir-	.
.	.	.	4E\	-gam	.	4B 4G#\	-gam	.	4g#/	-gam	.	4b\	-gam	.
.	.	.	4E\	vir-	.	4B 4G#\	vir-	.	4g#/	vir-	.	4b\	vir-	.
=42	=42	=42	=42	=42	=42	=42	=42	=42	=42	=42	=42	=42	=42	=42
2.E_ 2.EE/_	2cc#X 2a\	.	2E\	-tu-	.	2c#X 2A\	-tu-	.	2a/	-tu-	.	2cc#X\	-tu-	.
.	4b 4g#\	.	4E\	-tis	.	4B 4G#\	-tis	.	4g#/	-tis	.	4b\	-tis	.
=43	=43	=43	=43	=43	=43	=43	=43	=43	=43	=43	=43	=43	=43	=43
2.E_ 2.EE/_	4ee 4g#\	.	2.E\	tu-	.	(4e 4G#\	tu-	.	(4g#/	tu-	.	(4ee\	tu-	.
.	4dd# 4b\	.	.	.	.	4d# 4B\	.	.	4b/	.	.	4dd#\	.	.
.	4cc# 4a\	.	.	.	.	4c# 4A\)	.	.	4a/)	.	.	4cc#\)	.	.
=44	=44	=44	=44	=44	=44	=44	=44	=44	=44	=44	=44	=44	=44	=44
2.E] 2.EE/]	2b 2g#\	.	2E\	-ae	.	2B 2G#/	-ae	.	2g#/	-ae	.	2b\	-ae	.
.	4g# 4e\	.	4E\	e-	.	4G# 4E/	e-	.	4e/	e-	.	4g#/	e-	.
=45	=45	=45	=45	=45	=45	=45	=45	=45	=45	=45	=45	=45	=45	=45
[2.B [2.BB\	2.a 2.f#/	.	2BB/	-mit-	.	2A 2F#/	-mit-	.	(4e/	-mit-	.	2a/	-mit-	.
.	.	.	.	.	.	.	.	.	4d#/)	.	.	.	.	.
.	.	.	4BB/	-tet	.	4A 4E/	-tet	.	4c#/	-tet	.	4a/	-tet	.
=46	=46	=46	=46	=46	=46	=46	=46	=46	=46	=46	=46	=46	=46	=46
*	*^	*	*	*	*	*	*	*	*	*	*	*	*	*
2.B] 2.BB\]	4a/	2.d#\	.	4BB/	Do-	.	4A 4F#/	Do-	.	4d#/	Do-	.	4a\	Do-	.
.	4cc#/	.	.	4BB/	-mi-	.	4c# 4F#/	-mi-	.	4d#/	-mi-	.	4cc#\	-mi-	.
.	8b/L	.	.	8BB/	-nus	.	8B 8F#/	-nus	.	8d#/	-nus	.	8b\	-nus	.
.	8a/J	.	.	8BB/	ex	.	8A 8F#/	ex	.	8d#/	ex	.	8a\	ex	.
*	*v	*v	*	*	*	*	*	*	*	*	*	*	*	*	*
=47	=47	=47	=47	=47	=47	=47	=47	=47	=47	=47	=47	=47	=47	=47
[2.E [2.EE/	2.a 2.f# 2.d#/	.	2.E\	Si-	.	2.A 2.F#/	Si-	.	2.d#/	Si-	.	2.a/	Si-	.
=48	=48	=48	=48	=48	=48	=48	=48	=48	=48	=48	=48	=48	=48	=48
2E] 2EE/]	2g# 2e/	.	2E\	-on	.	2G# 2E/	-on	.	2e/	-on	.	2g#/	-on	.
4r	4r	.	4r	.	.	4r	.	.	4r	.	.	4r	.	.
=49	=49	=49	=49	=49	=49	=49	=49	=49	=49	=49	=49	=49	=49	=49
[2.E [2.EE/	2.b 2.g#\	.	4E\	Vir-	.	4B 4G#\	Vir-	.	4g#/	Vir-	.	4b\	Vir-	.
.	.	.	4E\	-gam	.	4B 4G#\	-gam	.	4g#/	-gam	.	4b\	-gam	.
.	.	.	4E\	vir-	.	4B 4G#\	vir-	.	4g#/	vir-	.	4b\	vir-	.
=50	=50	=50	=50	=50	=50	=50	=50	=50	=50	=50	=50	=50	=50	=50
2.E_ 2.EE/_	2cc# 2a\	.	2E\	-tu-	.	2c# 2A\	-tu-	.	2a/	-tu-	.	2cc#\	-tu-	.
.	4b 4g#\	.	4E\	-tis	.	4B 4G#\	-tis	.	4g#/	-tis	.	4b\	-tis	.
=51	=51	=51	=51	=51	=51	=51	=51	=51	=51	=51	=51	=51	=51	=51
!	!	!LO:DY:rj	!	!	!LO:DY:rj:b	!	!	!LO:DY:rj:b	!	!	!LO:DY:rj:b	!	!	!LO:DY:rj:b
2.E_ 2.EE/_	4gg# 4b\	f	2.E\	tu-	f	(4g# 4B\	tu-	f	(4b/	tu-	f	(4gg#\	tu-	f
.	4ee 4g#\	.	.	.	.	4e 4G#\	.	.	4g#/	.	.	4ee\	.	.
.	4cc# 4a\	.	.	.	.	4c# 4A\)	.	.	4a/)	.	.	4cc#\)	.	.
=52	=52	=52	=52	=52	=52	=52	=52	=52	=52	=52	=52	=52	=52	=52
2.E] 2.EE/]	2.b 2.g#\	.	2E\	-ae	.	2B 2G#/	-ae	.	2g#/	-ae	.	2b\	-ae	.
!	!	!	!	!	!	!	!	!	!	!	!	!LO:TX:t=P:problem:skreślony #	!	!
.	.	.	4E\	e-	.	4B 4G#/	e-	.	4g#/	e-	.	4b\	e-	.
=53	=53	=53	=53	=53	=53	=53	=53	=53	=53	=53	=53	=53	=53	=53
*	*^	*	*	*	*	*^	*	*	*	*	*	*	*	*
4E\	4a#X/	2.f#\	.	(4E\	-mit-	.	(<4A#X/	2F#\	-mit-	.	2f#/	-mit-	.	(4a#X\	-mit-	.
4D#\	4b/	.	.	4D#\)	.	.	4B/)	.	.	.	.	.	.	4b\)	.	.
4C#\	4cc#/	.	.	4C#/	-tet	.	4c#/	4F#\	-tet	.	4f#/	-tet	.	4cc#\	-tet	.
*	*	*	*	*	*	*	*v	*v	*	*	*	*	*	*	*	*
=54	=54	=54	=54	=54	=54	=54	=54	=54	=54	=54	=54	=54	=54	=54	=54
2BB/	2dd#/	2f#\	.	4.BB/	Do-	.	4.d# 4.F#\	Do-	.	4.b\	Do-	.	4.dd#\	Do-	.
.	.	.	.	8BB/	-mi-	.	8d# 8F#\	-mi-	.	8b\	-mi-	.	8dd#\	-mi-	.
4E\	8ff#/L	4b 4g#\	.	8E\	-nus	.	8f# 8G#\	-nus	.	8b\	-nus	.	8ff#\	-nus	.
.	8ee/J	.	.	8E\	ex	.	8e 8G#\	ex	.	8b\	ex	.	8ee\	ex	.
*	*v	*v	*	*	*	*	*	*	*	*	*	*	*	*	*
=55	=55	=55	=55	=55	=55	=55	=55	=55	=55	=55	=55	=55	=55	=55
2F#\	4dd# 4b\	.	2.F#\	Si-	.	(4d# 4B\	Si-	.	(4b\	Si-	.	(4dd#\	Si-	.
.	4ee 4cc#\	.	.	.	.	4e 4c#\	.	.	4cc#\	.	.	4ee\	.	.
4FF#/	4cc# 4a#X\	.	.	.	.	4c# 4A#X\)	.	.	4a#X\)	.	.	4cc#\)	.	.
!!LO:LB:g=original
=56	=56	=56	=56	=56	=56	=56	=56	=56	=56	=56	=56	=56	=56	=56
*	*	*	*	*	*	*^	*	*	*	*	*	*	*	*
2BB/	2b\	.	2BB/	-on	.	2B/	2B\	-on	.	2b\	-on	.	2b\	-on	.
4r	4r	.	4r	.	.	4r	4ryy	.	.	4r	.	.	4r	.	.
*	*	*	*	*	*	*v	*v	*	*	*	*	*	*	*	*
=57	=57	=57	=57	=57	=57	=57	=57	=57	=57	=57	=57	=57	=57	=57
[2.B [2.BB\	2d# 2B/	.	4BB/	Vir-	.	4D# 4BB/	Vir-	.	4B/	Vir-	.	4b\	Vir-	.
.	.	.	4BB/	-gam	.	4D# 4BB/	-gam	.	4B/	-gam	.	4b\	-gam	.
.	4e 4c#/	.	4BB/	vir-	.	4E 4C#/	vir-	.	4B/	vir-	.	4b\	vir-	.
=58	=58	=58	=58	=58	=58	=58	=58	=58	=58	=58	=58	=58	=58	=58
2.B_ 2.BB\_	2e#X 2c##X/	.	2BB/	-tu-	.	2E#X 2C##X/	-tu-	.	2B/	-tu-	.	2b\	-tu-	.
.	4f# 4d#/	.	4BB/	-tis	.	4F# 4D#/	-tis	.	4B/	-tis	.	4b\	-tis	.
=59	=59	=59	=59	=59	=59	=59	=59	=59	=59	=59	=59	=59	=59	=59
2.B_ 2.BB\_	2.g# 2.e/	.	2.BB/	tu-	.	2.G# 2.E/	tu-	.	2.B/	tu-	.	2.b\	tu-	.
=60	=60	=60	=60	=60	=60	=60	=60	=60	=60	=60	=60	=60	=60	=60
2.B_ 2.BB\_	4f# 4d#/	.	4BB/	-ae	.	4F# 4D#/	-ae	.	4B/	-ae	.	4b\	-ae	.
.	4r	.	4r	.	.	4r	.	.	4r	.	.	4r	.	.
.	4f# 4d#/	.	4BB/	e-	.	4F# 4D#/	e-	.	4B/	e-	.	4b\	e-	.
=61	=61	=61	=61	=61	=61	=61	=61	=61	=61	=61	=61	=61	=61	=61
2.B_ 2.BB\_	2e#X 2c##X/	.	2BB/	-mit-	.	2E#X 2C##X/	-mit-	.	2B/	-mit-	.	2b\	-mit-	.
.	4f# 4d#/	.	4BB/	-tet	.	4F# 4D#/	-tet	.	4B/	-tet	.	4b\	-tet	.
=62	=62	=62	=62	=62	=62	=62	=62	=62	=62	=62	=62	=62	=62	=62
2.B_ 2.BB\_	2f##X 2d##X/	.	4BB/	Do-	.	4F##X 4D##X/	Do-	.	4B/	Do-	.	4b\	Do-	.
.	.	.	4BB/	-mi-	.	4F## 4D##/	-mi-	.	4B/	-mi-	.	4b\	-mi-	.
.	4g# 4e#X/	.	8BB/	-nus	.	8G# 8E#X/	-nus	.	8B/	-nus	.	8b\	-nus	.
.	.	.	8BB/	ex	.	8G# 8E#/	ex	.	8B/	ex	.	8b\	ex	.
=63	=63	=63	=63	=63	=63	=63	=63	=63	=63	=63	=63	=63	=63	=63
2.B_ 2.BB\_	2.a 2.f#/	.	2.BB/	Si-	.	2.A 2.F#/	Si-	.	2.B/	Si-	.	2.b\	Si-	.
=64	=64	=64	=64	=64	=64	=64	=64	=64	=64	=64	=64	=64	=64	=64
4B] 4BB\]	4.g# 4.e/	.	4BB/	-on	.	4G# 4E/	-on	.	4B/	-on	.	4b\	-on	.
4r	.	.	4r	.	.	4r	.	.	4r	.	.	4r	.	.
.	(8e/L	.	.	.	.	.	.	.	.	.	.	.	.	.
4r	8g#/	.	4r	.	.	4r	.	.	4r	.	.	4r	.	.
.	8b/J)	.	.	.	.	.	.	.	.	.	.	.	.	.
=65	=65	=65	=65	=65	=65	=65	=65	=65	=65	=65	=65	=65	=65	=65
*	*^	*	*	*	*	*^	*	*	*	*	*	*	*	*
2E 2EE/	[2.ee/	2g#\	.	(2E\	Do-	.	[2.e/	[2.e\	Do-	.	(2g#/	Do-	.	[2.ee\	Do-	.
4F# 4FF#/	.	4a\	.	4F#\	.	.	.	.	.	.	4a/	.	.	.	.	.
=66	=66	=66	=66	=66	=66	=66	=66	=66	=66	=66	=66	=66	=66	=66	=66	=66
2F##X 2FF##X/	2.ee/_	2a#X\	.	2F##X\)	.	.	2e/]	2e\]	.	.	2a#X/)	.	.	2ee\]	.	.
4G# 4GG#\	.	4b\	.	4G#\	-mi-	.	4e/	4e\	-mi-	.	4b/	-mi-	.	4ee\	-mi-	.
=67	=67	=67	=67	=67	=67	=67	=67	=67	=67	=67	=67	=67	=67	=67	=67	=67
2.A 2.AA\	2.ee/_	2.cc#\	.	2.A\	-na-	.	2.e/	2.e\	-na-	.	2.cc#\	-na-	.	2.ee\	-na-	.
=68	=68	=68	=68	=68	=68	=68	=68	=68	=68	=68	=68	=68	=68	=68	=68	=68
4G# 4GG#\	4ee/]	4b\	.	4G#\	-re	.	4e/	4e\	-re	.	4b\	-re	.	4ee\	-re	.
4r	4r	4ryy	.	4r	.	.	4r	4ryy	.	.	4r	.	.	4r	.	.
4E 4EE/	4ee 4e\	4ryy	.	4E\	in	.	4e 4E\	4ryy	in	.	4e/	in	.	4ee\	in	.
*	*v	*v	*	*	*	*	*v	*v	*	*	*	*	*	*	*	*
=69	=69	=69	=69	=69	=69	=69	=69	=69	=69	=69	=69	=69	=69	=69
2.A 2.AA\	4.ee 4.cc#\	.	4.A\	me-	.	(4.e 4.c#\	me-	.	(4.cc#\	me-	.	(4.ee\	me-	.
.	8dd# 8b\	.	8A\	.	.	8d# 8B\)	.	.	8b\)	.	.	8dd#\)	.	.
.	4cc# 4a\	.	4A\	-dio	.	4c# 4A\	-dio	.	4a\	-dio	.	4cc#\	-dio	.
=70	=70	=70	=70	=70	=70	=70	=70	=70	=70	=70	=70	=70	=70	=70
[2.B [2.BB\	4b 4g#/	.	4B\	i-	.	4B 4G#\	i-	.	4g#/	i-	.	4b\	i-	.
.	4a 4f#/	.	4BB/	-ni-	.	4A 4F#\	-ni-	.	4f#/	-ni-	.	4a\	-ni-	.
.	4g# 4e/	.	4BB/	-mi-	.	4G# 4E\	-mi-	.	4e/	-mi-	.	4g#\	-mi-	.
=71	=71	=71	=71	=71	=71	=71	=71	=71	=71	=71	=71	=71	=71	=71
*	*^	*	*	*	*	*^	*	*	*	*	*	*	*	*
2.B] 2.BB\]	2a/	2f#\	.	2BB/	-co-	.	2A/	4.F#\	-co-	.	(4e/	-co-	.	2a/	-co-	.
.	.	.	.	.	.	.	.	.	.	.	8d#/L	.	.	.	.	.
.	.	.	.	.	.	.	.	8E\	.	.	8c#/J)	.	.	.	.	.
.	8a/L	4d#\	.	8BB/	-rum	.	8A/	4F#\	-rum	.	8d#/	-rum	.	8a/	-rum	.
.	8b/J	.	.	8BB/	tu-	.	8B/	.	tu-	.	8d#/	tu-	.	8b/	tu-	.
*	*v	*v	*	*	*	*	*v	*v	*	*	*	*	*	*	*	*
=72	=72	=72	=72	=72	=72	=72	=72	=72	=72	=72	=72	=72	=72	=72
2E 2EE/	4a 4f# 4d#/	.	4E\	-o-	.	4A 4F#/	-o-	.	4d#/	-o-	.	4a/	-o-	.
.	8g#L 8e/	.	4E\	-rum	.	4G# 4E/	-rum	.	4e/	-rum	.	4g#/	-rum	.
.	8e/	.	.	.	.	.	.	.	.	.	.	.	.	.
4r	8g#/	.	4r	.	.	4r	.	.	4r	.	.	4r	.	.
.	8b/J	.	.	.	.	.	.	.	.	.	.	.	.	.
!!LO:PB:g=original
=73	=73	=73	=73	=73	=73	=73	=73	=73	=73	=73	=73	=73	=73	=73
*	*^	*	*	*	*	*^	*	*	*	*	*	*	*	*
2E 2EE/	[2.ee/	2g#\	.	(2E\	Do-	.	[2.e/	[2.e\	Do-	.	(2g#/	Do-	.	[2.ee\	Do-	.
4F# 4FF#/	.	4a\	.	4F#\	.	.	.	.	.	.	4a/	.	.	.	.	.
=74	=74	=74	=74	=74	=74	=74	=74	=74	=74	=74	=74	=74	=74	=74	=74	=74
2F##X 2FF##X/	2.ee/_	2a#X\	.	2F##X\)	.	.	2e/]	2e\]	.	.	2a#X/)	.	.	2ee\]	.	.
4G# 4GG#\	.	4b\	.	4G#\	-mi-	.	4e/	4e\	-mi-	.	4b/	-mi-	.	4ee\	-mi-	.
=75	=75	=75	=75	=75	=75	=75	=75	=75	=75	=75	=75	=75	=75	=75	=75	=75
2.A 2.AA\	2.ee/_	2.cc#\	.	2.A\	-na-	.	2.e/	2.e\	-na-	.	2.cc#\	-na-	.	2.ee\	-na-	.
=76	=76	=76	=76	=76	=76	=76	=76	=76	=76	=76	=76	=76	=76	=76	=76	=76
4G# 4GG#\	4ee/]	4b\	.	4G#\	-re	.	4e/	4e\	-re	.	4b\	-re	.	4ee\	-re	.
4r	4r	4ryy	.	4r	.	.	4r	4ryy	.	.	4r	.	.	4r	.	.
4E 4EE/	4ee 4e\	4ryy	.	4E\	in	.	4e 4E\	4ryy	in	.	4e/	in	.	4ee\	in	.
*	*v	*v	*	*	*	*	*v	*v	*	*	*	*	*	*	*	*
=77	=77	=77	=77	=77	=77	=77	=77	=77	=77	=77	=77	=77	=77	=77
2.A 2.AA\	4.ee 4.cc#\	.	4.A\	me-	.	4.e 4.c#\	me-	.	4.cc#\	me-	.	4.ee\	me-	.
.	8dd# 8b\	.	8A\	-di-	.	8d# 8B\	-di-	.	8b\	-di-	.	8dd#\	-di-	.
.	4cc# 4a\	.	4A\	-o	.	4c# 4A\	-o	.	4a\	-o	.	4cc#\	-o	.
=78	=78	=78	=78	=78	=78	=78	=78	=78	=78	=78	=78	=78	=78	=78
[2.B [2.BB\	4b 4g#\	.	4B\	i-	.	4B 4G#\	i-	.	4g#/	i-	.	4b/	i-	.
.	4a 4f#\	.	4BB/	-ni-	.	4A 4F#\	-ni-	.	4f#/	-ni-	.	4a/	-ni-	.
.	4g# 4e\	.	4BB/	-mi-	.	4G# 4E\	-mi-	.	4e/	-mi-	.	4g#/	-mi-	.
=79	=79	=79	=79	=79	=79	=79	=79	=79	=79	=79	=79	=79	=79	=79
*	*^	*	*	*	*	*^	*	*	*	*	*	*	*	*
2.B] 2.BB\]	2f#/	4e\	.	2BB/	-co-	.	2A/	4.F#\	-co-	.	(4e/	-co-	.	2f#/	-co-	.
.	.	8d#\L	.	.	.	.	.	.	.	.	8d#/L	.	.	.	.	.
.	.	8c#\J	.	.	.	.	.	8E\	.	.	8c#/J)	.	.	.	.	.
.	8f#/L	4d#\	.	8BB/	-rum	.	8A/	4F#\	-rum	.	8d#/	-rum	.	8f#/	-rum	.
.	8g#/J	.	.	8BB/	tu-	.	8B/	.	tu-	.	8d#/	tu-	.	8g#/	tu-	.
*	*v	*v	*	*	*	*	*v	*v	*	*	*	*	*	*	*	*
=80	=80	=80	=80	=80	=80	=80	=80	=80	=80	=80	=80	=80	=80	=80
[2.E [2.EE;</	2.f# 2.d# 2.A;</	.	2.E;\	-o-	.	2.A 2.F#;/	-o-	.	2.d#;/	-o-	.	2.f#;/	-o-	.
=81	=81	=81	=81	=81	=81	=81	=81	=81	=81	=81	=81	=81	=81	=81
4E] 4EE/]	4e 4G#/	.	4E\	-rum	.	4G# 4E/	-rum	.	4e/	-rum	.	4e/	-rum	.
*	*	*	*	*Xij	*	*	*	*	*	*Xij	*	*	*	*
4r	4r	.	4r	.	.	4r	.	.	4r	.	.	4r	.	.
4r	4r	.	4r	.	.	4r	.	.	4r	.	.	4r	.	.
==	==	==	==	==	==	==	==	==	==	==	==	==	==	==
*-	*-	*-	*-	*-	*-	*-	*-	*-	*-	*-	*-	*-	*-	*-
!!!system-decoration: (s1,s2,s3,s4,p5)
!!!RDF**kern: > = above
!!!RDF**kern: < = below
!!!ENC: Andrzej Kubiczek
!!!END: 2021-06-06
!!!ENC: Krzysztof Stępień
!!!END: 2021-05-14
